build/security/KeyOutline.svg

<svg xmlns="http://www.w3.org/2000/svg" fill="none" viewBox="0 0 24 24" focusable="false"><path d="M0 0H24V24H0z"/><path fill="#74767B" fill-rule="evenodd" d="M12.4085 3.55898C11.2369 2.3874 9.33745 2.3874 8.16588 3.55898L3.92324 7.80162C2.75166 8.97319 2.75166 10.8727 3.92324 12.0443L6.04456 14.1656C7.21613 15.3372 9.11562 15.3372 10.2872 14.1656L10.6202 13.8325L17.3072 20.5195C17.5581 20.7704 17.8751 20.945 18.2212 21.023C19.2115 21.2461 20.1996 20.6409 20.4508 19.6574L20.6114 19.0284C20.8336 18.1584 20.5807 17.2358 19.9458 16.6008L19.6016 16.2564C19.3578 16.0125 19.027 15.8755 18.6822 15.8755L18.0749 15.8755C17.7398 15.8755 17.4517 15.638 17.3878 15.3091L16.9994 13.312C16.9492 13.0538 16.8218 12.8168 16.6341 12.6325L14.2052 10.2476L14.5298 9.92294C15.7014 8.75137 15.7014 6.85187 14.5298 5.6803L12.4085 3.55898ZM9.08512 4.47822L4.84247 8.72086C4.17858 9.38475 4.17858 10.4611 4.84247 11.125L6.96379 13.2463C7.62769 13.9102 8.70407 13.9102 9.36796 13.2463L13.6106 9.0037C14.2745 8.33981 14.2745 7.26343 13.6106 6.59954L11.4893 4.47822C10.8254 3.81433 9.74901 3.81432 9.08512 4.47822ZM10.5317 7.76922C10.7856 7.51538 10.7856 7.10382 10.5317 6.84998C10.2779 6.59614 9.86632 6.59614 9.61248 6.84998L7.25357 9.20889C6.99973 9.46273 6.99973 9.87428 7.25357 10.1281C7.50741 10.382 7.91897 10.382 8.17281 10.1281L10.5317 7.76922ZM15.7233 13.5601L13.2881 11.1691L11.5417 12.9155L18.2264 19.6003C18.3035 19.6773 18.4007 19.7309 18.507 19.7548C18.8109 19.8233 19.1141 19.6375 19.1912 19.3357L19.3519 18.7067C19.4605 18.2814 19.3368 17.8303 19.0265 17.5199L18.6822 17.1755L18.0749 17.1755C17.1175 17.1755 16.2944 16.497 16.1117 15.5572L15.7233 13.5601Z"/></svg>

<svg xmlns="http://www.w3.org/2000/svg" fill="none" viewBox="0 0 24 24" focusable="false"><path fill="#74767B" fill-rule="evenodd" d="M12.4 3.55a3 3 0 0 0-4.24 0L3.92 7.8a3 3 0 0 0 0 4.24l2.12 2.12a3 3 0 0 0 4.24 0l.34-.33 6.68 6.68c.25.26.57.43.92.51.99.22 1.97-.38 2.23-1.37l.16-.63c.22-.87-.03-1.79-.67-2.42l-.34-.35c-.25-.24-.58-.38-.92-.38h-.61c-.34 0-.62-.24-.69-.57l-.39-1.99c-.05-.26-.17-.5-.36-.68l-2.43-2.39.32-.32a2.98 2.98 0 0 0 0-4.24zm-3.32.92L4.84 8.72c-.67.66-.67 1.74 0 2.4l2.12 2.12c.66.67 1.74.67 2.4 0L13.61 9c.66-.67.66-1.74 0-2.41l-2.13-2.12c-.66-.66-1.74-.66-2.4 0m1.45 2.37c.25.26.25.67 0 .92l-2.36 2.36a.64.64 0 0 1-.92 0 .64.64 0 0 1 0-.92l2.36-2.36c.25-.25.66-.25.92 0m5.19 6.72-2.44-2.4-1.74 1.75 6.68 6.69a.58.58 0 0 0 .97-.27l.16-.63c.11-.42-.02-.87-.33-1.19l-.34-.34h-.61c-.96 0-1.78-.68-1.96-1.62z"/></svg>
